!! 00024] TT[TB
!! Zh. Ch. M-003, NN), MZ 353)
!!!OTL: Wang ersao guonian, 1)
!!!ARE: Asia, China,ÿDongbei, Nordosten
!! Ethnic Group: Han
!! MM,
!!!SCT: C0896A
!!!YEM: Copyright 1995, estate of Helmut Schaffrath.
**kern
*ICvox
*Ivox
*M2/4
*k[f#]
*G:
{8r
8dd
8b
8dd
=1
8.g
16b
8a
8a
=2
8r
8b
8dd
8g
=3
4dd
16b
16dd
[8a
=4
2a]}
=5
{8r
8b
8b
8e
=6
4.b
24e
24g
24e
=7
8b
16b
16dd
8.e
16dd
=8
8.b
16a
16g
16a
[8e
=9
8e]
4.r}
=10
{8r
8b
8b
8g
=11
8b
8dd
8b
8a
=12
8dd
16b
16dd
8ee
8b
=13
8.g
16a
8b
[8a
=14
8a]
4.r}
=15
{8r
8e
8g
8g
=16
8dd
16b
16dd
8e
8b
=17
8r
4dd
16e
16dd
=18
8.b
16a
16g
16a
[8e
=19
8e]
4.r}
=20
{8r
16dd
16dd
8ee
16dd
16b
=21
8dd
8b
8a
8a
=22
8dd
16b
16b
8dd
8dd
=23
8.g
16a
8b
[8a
=24
8a]
4.r}
=25
{4.r
8e
=26
8b
16e
16g
4r
=27
8r
4b
16gg
16b
=28
16b
16dd
16b
16a
16g
16a
[8e
=29
8e]
4.r}
==
!!!AGN: Xiaodiao. Shenghuo xiaochang
!! Beilage kopiert. Hier mit Noten
!!    +++Dieses Lied wurde GETEILT!!! Der zweite Teil ist im folgenden Do-
!!    kument unter gleicher Signatur kodiert.
!!    Einige Verzierungen. Vor- und Zwischenspiele weggelassen.
!!    Ergaenzungen: Phr.2, zweiter T. Punktierung und Triole und
!!    fehlende Klammer fuer Zwischenspiel zwischen Phr.2 u. 3, Textunterle-
!!    gung fehlt.) +++ Vieles nicht notierbar. Die Tonhoehen sind besser am
!!    zweiten Teil abzulesen. +++
!!!ONB: ESAC (Essen Associative Code) Database: CHINA
!!!AMT: simple duple
!!!AIN: vox
!!!EED: Helmut Schaffrath
!!!EEV: 1.0
*-
!!!ONB: Tied note syntax fixed by Craig Sapp, 2004/05/03/
